X: 319
T: The fairy jig
C: anon.
O: Ireland
B: Francis O'Neill: "The Dance Music of Ireland" (1907) no. 319
R: Double jig
Z: Transcribed by Frank Nordberg - http://www.musicaviva.com
F: http://www.musicaviva.com/abc/tunes/ireland/oneill-1001/oneill-1001-031
9.abc
M: 6/8
L: 1/8
K: G
(g/e/)|dBA BGA|GBd g2a|bgd dBG|FAA A2 (g/e/)|dBA BGA|GBd gab|age dBA|BGG
G2:|
|:d|edd deg|baa aga|bge dBG|FAA A2d|edd deg|baa aga|bge dBA|BGG G2:|
W:
W:
W: From Musica Viva - http://www.musicaviva.com
W: the Internet center for free sheet music downloads.


